X: 10644
M: C
L: 1/8
K: G
(3(DEF) |\
(dc)({c}BA) (GA)(Bc) | dBGB d2cB | ABcd BcAB | G2E2 E2 :|
|: gf |\
egdg Bgdg | egdg Bgdg | eaca Aaca | eaca Aaca |\
egdg Bgdg | efge edBG | ABcd BcAB | G2E2 E2 :|


